src/static/logos/google-data-studio.svg

<?xml version="1.0" encoding="UTF-8"?>
<svg width="256px" height="257px" viewBox="0 0 256 257" version="1.1" xmlns="http://www.w3.org/2000/svg" xmlns:xlink="http://www.w3.org/1999/xlink" preserveAspectRatio="xMidYMid">
    <defs>
        <linearGradient x1="32.8132237%" y1="32.5323841%" x2="113.876316%" y2="114.132318%" id="linearGradient-1">
            <stop stop-color="#263238" stop-opacity="0.2" offset="0%"></stop>
            <stop stop-color="#263238" stop-opacity="0" offset="43.13%"></stop>
        </linearGradient>
        <linearGradient x1="0%" y1="49.9671269%" x2="100%" y2="49.9671269%" id="linearGradient-2">
            <stop stop-color="#FFFFFF" stop-opacity="0.1" offset="0%"></stop>
            <stop stop-color="#FFFFFF" stop-opacity="0" offset="100%"></stop>
        </linearGradient>
    </defs>
		<g>
				<path d="M256,20.5473684 C256,9.26315789 246.736842,0 235.452632,0 L20.5473684,0 C9.26315789,-5.98351777e-15 0,9.26315789 0,20.5473684 L0,235.621053 C0,246.905263 9.26315789,256.168421 20.5473684,256.168421 L125.642105,256.168421 C197.894737,256.168421 256,201.094737 256,126.652632 C256,105.431579 256,20.5473684 256,20.5473684 Z" fill="#3367D6" fill-rule="nonzero"></path>
				<path d="M256,126.484211 C256,119.242105 256,104.589474 256,88.4210526 L168.757895,1.68421053 L0,168.421053 L87.7473684,256 L125.642105,256 C197.894737,256 256,200.926316 256,126.484211 Z" fill="url(#linearGradient-1)" fill-rule="nonzero"></path>
				<path d="M79.3263158,1.68421053 L235.452632,1.68421053 C246.736842,1.68421053 256,10.9473684 256,22.2315789 L256,20.5473684 C256,9.26315789 246.736842,0 235.452632,0 L79.3263158,0 L79.3263158,1.68421053 Z" fill="#FFFFFF" fill-rule="nonzero" opacity="0.2"></path>
				<path d="M20.5473684,0 C9.26315789,0 0,9.26315789 0,20.5473684 L0,168.421053 C0,168.421053 50.6947368,168.421053 84.0421053,168.421053 C131.873684,168.421053 168.421053,129.684211 168.421053,83.8736842 L168.421053,0 L20.5473684,0 Z" fill="#000000" fill-rule="nonzero"></path>
				<path d="M20.5473684,0 C9.26315789,0 0,9.26315789 0,20.5473684 L0,168.421053 C0,168.421053 50.6947368,168.421053 84.0421053,168.421053 C131.873684,168.421053 168.421053,129.684211 168.421053,83.8736842 L168.421053,0 L20.5473684,0 Z" fill="#64B5F6"></path>
				<path d="M168.421053,1.68421053 L20.5473684,1.68421053 C9.26315789,1.68421053 0,10.9473684 0,22.2315789 L0,20.5473684 C0,9.26315789 9.26315789,0 20.5473684,0 L168.421053,0 L168.421053,1.68421053 Z" fill="#FFFFFF" fill-rule="nonzero" opacity="0.2"></path>
				<path d="M125.642105,254.315789 L20.5473684,254.315789 C9.26315789,254.315789 0,245.052632 0,233.768421 L0,235.452632 C0,246.736842 9.26315789,256 20.5473684,256 L125.642105,256 C197.894737,256 256,200.926316 256,126.484211 C256,125.978947 256,125.473684 256,124.8 C256,199.242105 197.894737,254.315789 125.642105,254.315789 Z" fill="#263238" fill-rule="nonzero"></path>
				<path d="M256,20.5473684 C256,9.26315789 246.736842,0 235.452632,0 L20.5473684,0 C9.26315789,-5.98351777e-15 0,9.26315789 0,20.5473684 L0,235.621053 C0,246.905263 9.26315789,256.168421 20.5473684,256.168421 L125.642105,256.168421 C197.894737,256.168421 256,201.094737 256,126.652632 C256,105.431579 256,20.5473684 256,20.5473684 Z" fill="url(#linearGradient-2)" fill-rule="nonzero"></path>
		</g>
</svg>

<svg width="256" height="257" xmlns="http://www.w3.org/2000/svg" preserveAspectRatio="xMidYMid"><defs><linearGradient x1="32.813%" y1="32.532%" x2="113.876%" y2="114.132%" id="a"><stop stop-color="#263238" stop-opacity=".2" offset="0%"/><stop stop-color="#263238" stop-opacity="0" offset="43.13%"/></linearGradient><linearGradient x1="0%" y1="49.967%" x2="100%" y2="49.967%" id="b"><stop stop-color="#FFF" stop-opacity=".1" offset="0%"/><stop stop-color="#FFF" stop-opacity="0" offset="100%"/></linearGradient></defs><path d="M256 20.547C256 9.263 246.737 0 235.453 0H20.547C9.263 0 0 9.263 0 20.547v215.074c0 11.284 9.263 20.547 20.547 20.547h105.095c72.253 0 130.358-55.073 130.358-129.515V20.547z" fill="#3367D6"/><path d="M256 126.484V88.421L168.758 1.684 0 168.421 87.747 256h37.895C197.895 256 256 200.926 256 126.484z" fill="url(#a)"/><path d="M79.326 1.684h156.127c11.284 0 20.547 9.263 20.547 20.548v-1.685C256 9.263 246.737 0 235.453 0H79.326v1.684z" fill="#FFF" opacity=".2"/><path d="M20.547 0C9.263 0 0 9.263 0 20.547v147.874h84.042c47.832 0 84.38-38.737 84.38-84.547V0H20.546z"/><path d="M20.547 0C9.263 0 0 9.263 0 20.547v147.874h84.042c47.832 0 84.38-38.737 84.38-84.547V0H20.546z" fill="#64B5F6"/><path d="M168.421 1.684H20.547C9.263 1.684 0 10.947 0 22.232v-1.685C0 9.263 9.263 0 20.547 0h147.874v1.684z" fill="#FFF" opacity=".2"/><path d="M125.642 254.316H20.547C9.263 254.316 0 245.053 0 233.768v1.685C0 246.737 9.263 256 20.547 256h105.095C197.895 256 256 200.926 256 126.484V124.8c0 74.442-58.105 129.516-130.358 129.516z" fill="#263238"/><path d="M256 20.547C256 9.263 246.737 0 235.453 0H20.547C9.263 0 0 9.263 0 20.547v215.074c0 11.284 9.263 20.547 20.547 20.547h105.095c72.253 0 130.358-55.073 130.358-129.515V20.547z" fill="url(#b)"/></svg>
